X: 886
T: Alexander's
R: hornpipe
M: 4/4
K: Dmajor
(3gfe|dAFA DFAd|fdcd FAdf|(3ggg ge (3fff fd|(3efe (3dcB A2 (3ABc|
dAFA DFAd|fdcd FAdf|gfge fefd|(3efe dcd2:|
AG|FAdA FAdA|GBdB GBdB|Acec Acec|dfaf (3gfe cA|
FAdA FAdA|GBdB GBdB|Aceg fefd|(3efe dcd2:|

